build/img/0-common/phone.svg

<svg width="30" height="30" viewBox="0 0 30 30" fill="none" xmlns="http://www.w3.org/2000/svg">
<rect width="30" height="30" rx="3" fill="white"/>
<g clip-path="url(#clip0)">
<path d="M20.8766 17.1894C20.0195 17.1894 19.1779 17.0553 18.3804 16.7918C17.9896 16.6585 17.5092 16.7808 17.2707 17.0257L15.6965 18.2141C13.8709 17.2396 12.7464 16.1154 11.7852 14.3035L12.9386 12.7704C13.2382 12.4711 13.3457 12.034 13.2169 11.6238C12.9522 10.8221 12.8178 9.98093 12.8178 9.12343C12.8178 8.50396 12.3139 8 11.6944 8H9.12339C8.50396 8 8 8.50396 8 9.12339C8 16.2237 13.7764 22 20.8766 22C21.4961 22 22 21.496 22 20.8766V18.3127C22 17.6934 21.496 17.1894 20.8766 17.1894Z" fill="#2B313F"/>
</g>
<defs>
<clipPath id="clip0">
<rect width="14" height="14" fill="white" transform="translate(8 8)"/>
</clipPath>
</defs>
</svg>

<svg width="30" height="30" fill="none" xmlns="http://www.w3.org/2000/svg"><rect width="30" height="30" rx="3" fill="#fff"/><g clip-path="url(#clip0)"><path d="M20.877 17.19a7.95 7.95 0 01-2.497-.398c-.39-.134-.87-.011-1.11.234l-1.573 1.188c-1.826-.974-2.95-2.099-3.912-3.91l1.154-1.534c.3-.299.407-.736.278-1.146a7.96 7.96 0 01-.4-2.5c0-.62-.503-1.124-1.123-1.124h-2.57C8.503 8 8 8.504 8 9.123 8 16.223 13.776 22 20.877 22c.62 0 1.123-.504 1.123-1.123v-2.564c0-.62-.504-1.124-1.123-1.124z" fill="#2B313F"/></g><defs><clipPath id="clip0"><path fill="#fff" transform="translate(8 8)" d="M0 0h14v14H0z"/></clipPath></defs></svg>
